X: 136
T:Lord Inchiquin
N: page 44
N: heptatonic
R: Waltz
M:3/4
K:D
A2|"D"d2 defe|d2 edcB|A2 F2 A2|f4 e2|\
"D"d2 edcB|A2 G2 F2|"G"G2 BAGF|"A7"E4 ag|
"D"f3 e d2|"G"d2 c2 B2|"D"A2 F2 A2|f4 e2|\
d2 edcB|A d3 F2|"A7"E3F D2|"D"D4 ::
A2 ||"A"ABcd e2| e2 d2 e2|"D"f2 d2 f2|"A"e4 fe|\
"D"defg a2|a2 b2 g2|f3 d f2|
"A"e4 fe|"D"defg a2|a2 b2 g2|"A"f3 g e2|"D"d4 f2|\
"Em"gf e2 e2|"E7"e2 f2 d2|c3 d B2|"A7"A4 ag|
"D"f3 e d2|"G"d2 c2 B2|"D"A2 F2 A2|"G"g4 fe|\
"D"d2 edcB|A d3 F2|"A7"E3F D2|"D"D4 :|
